X:1
T: Within a mile o' Edinburgh Toon
C:
R:Strathspey
Q: 128
K:A
M:4/4
L:1/16
|:c3d|ec3 B3c A4 c3A|FA3 E3C E4 A3B|ce3 f3a ec3 B2A2|c4 B4 z4 c3d|
ec3 B3c A4 c3A|FA3 E3C E4 A3B|ce3 f3a ec3 B3c|A12 z4|
A3B c3d e2c2 a4|A3B c3d e2c2 a3A|A3B A3F E2C2 E3A|c3A ce3 f4 a2^gf|
ec3 cA3 FA3 EA3|ce3 B3c A4 a2gf|ec3 cA3 FA3 E3A|ce3 B3c A4:|
